src/containers/site/SiteRobotsScreen/asset/robots_feature_3.svg

<svg width="75" height="75" viewBox="0 0 75 75" fill="none" xmlns="http://www.w3.org/2000/svg">
<path d="M75 41.5405V33.4595C75 31.6216 73.7013 30.0541 71.9156 29.7027L67.1266 28.7568C65.855 28.5135 64.7998 27.6216 64.3128 26.4324C64.3128 26.4324 64.3128 26.4054 64.2857 26.4054C63.7987 25.2162 63.9069 23.8378 64.6104 22.7568L67.316 18.7027C68.3442 17.1892 68.1277 15.1622 66.829 13.8649L61.1201 8.16216C59.8214 6.86486 57.7922 6.67568 56.2771 7.67568L52.2186 10.3784C51.1364 11.1081 49.7836 11.2162 48.566 10.7027C48.566 10.7027 48.539 10.7027 48.539 10.6757C47.3485 10.1892 46.4556 9.13513 46.2121 7.86486L45.2652 3.08108C44.9134 1.2973 43.3442 0 41.5043 0H33.4957C31.6558 0 30.0866 1.2973 29.7348 3.08108L28.7879 7.86486C28.5444 9.13513 27.6515 10.1892 26.461 10.6757C26.461 10.6757 26.434 10.6757 26.434 10.7027C25.2435 11.1892 23.8636 11.0811 22.7814 10.3784L18.7229 7.67568C17.2078 6.64865 15.1786 6.86486 13.8799 8.16216L8.171 13.8649C6.87229 15.1622 6.6829 17.1892 7.68398 18.7027L10.3896 22.7568C11.1201 23.8378 11.2284 25.1892 10.7143 26.4054C10.7143 26.4054 10.7143 26.4324 10.6872 26.4324C10.2002 27.6216 9.14502 28.5135 7.87338 28.7568L3.08442 29.7027C1.2987 30.0541 0 31.6216 0 33.4595V41.5405C0 43.3784 1.2987 44.9459 3.08442 45.2973L7.87338 46.2432C9.14502 46.4865 10.2002 47.3784 10.6872 48.5676C10.6872 48.5676 10.6872 48.5946 10.7143 48.5946C11.2013 49.7838 11.0931 51.1622 10.3896 52.2432L7.68398 56.2973C6.65584 57.8108 6.87229 59.8378 8.171 61.1351L13.8799 66.8378C15.1786 68.1351 17.2078 68.3243 18.7229 67.3243L22.7814 64.6216C23.8636 63.8919 25.2164 63.7838 26.434 64.2973C26.434 64.2973 26.461 64.2973 26.461 64.3243C27.6515 64.8108 28.5444 65.8649 28.7879 67.1351L29.7348 71.9189C30.0866 73.7027 31.6558 75 33.4957 75H41.5855C43.4253 75 44.9946 73.7027 45.3463 71.9189L46.2933 67.1351C46.5368 65.8649 47.4297 64.8108 48.6201 64.3243C48.6201 64.3243 48.6472 64.3243 48.6472 64.2973C49.8377 63.8108 51.2175 63.9189 52.2998 64.6216L56.3582 67.3243C57.8734 68.3513 59.9026 68.1351 61.2013 66.8378L66.9102 61.1351C68.2089 59.8378 68.3983 57.8108 67.3972 56.2973L64.6916 52.2432C63.961 51.1622 63.8528 49.8108 64.3669 48.5946C64.3669 48.5946 64.3669 48.5676 64.3939 48.5676C64.881 47.3784 65.9361 46.4865 67.2078 46.2432L71.9967 45.2973C73.7283 44.9459 75 43.3784 75 41.5405Z" fill="url(#paint0_linear)"/>
<path d="M37.5 59C49.3741 59 59 49.3741 59 37.5C59 25.6259 49.3741 16 37.5 16C25.6259 16 16 25.6259 16 37.5C16 49.3741 25.6259 59 37.5 59Z" fill="white"/>
<path fill-rule="evenodd" clip-rule="evenodd" d="M30.057 47.7069C30.3741 47.8934 30.7441 48 31.114 48C31.4576 48 31.8275 47.8934 32.1711 47.7335L46.9166 39.3656C47.5772 38.9925 48 38.273 48 37.5002C48 36.7273 47.5772 36.0078 46.9166 35.6347L32.1711 27.2668C31.5104 26.8938 30.7177 26.9204 30.057 27.2935C29.3964 27.6666 29 28.3861 29 29.1323V45.8681C29 46.6142 29.3964 47.3338 30.057 47.7069ZM33.2281 42.2171V32.7566L41.5522 37.5002L33.2281 42.2171Z" fill="url(#paint1_linear)"/>
<defs>
<linearGradient id="paint0_linear" x1="0.0362554" y1="74.9998" x2="75.0088" y2="74.9998" gradientUnits="userSpaceOnUse">
<stop stop-color="#FFB300"/>
<stop offset="1" stop-color="#FF8E37"/>
</linearGradient>
<linearGradient id="paint1_linear" x1="28.9908" y1="47.9773" x2="47.9674" y2="47.9773" gradientUnits="userSpaceOnUse">
<stop stop-color="#5C8BFC"/>
<stop offset="1" stop-color="#84B0FF"/>
</linearGradient>
</defs>
</svg>

<svg width="75" height="75" fill="none" xmlns="http://www.w3.org/2000/svg"><path d="M75 41.54v-8.08a3.825 3.825 0 00-3.084-3.757l-4.79-.946a3.843 3.843 0 01-2.813-2.325s0-.027-.027-.027c-.487-1.189-.38-2.567.324-3.648l2.706-4.054c1.028-1.514.812-3.54-.487-4.838L61.12 8.162a3.855 3.855 0 00-4.843-.486l-4.058 2.702c-1.083.73-2.435.838-3.653.325 0 0-.027 0-.027-.027-1.19-.487-2.083-1.54-2.327-2.811l-.947-4.784A3.827 3.827 0 0041.505 0h-8.01a3.827 3.827 0 00-3.76 3.081l-.947 4.784c-.244 1.27-1.137 2.324-2.327 2.81 0 0-.027 0-.027.028-1.19.486-2.57.378-3.653-.325l-4.058-2.702c-1.515-1.027-3.544-.811-4.843.486L8.17 13.865a3.845 3.845 0 00-.487 4.838l2.706 4.054c.73 1.08.838 2.432.324 3.648 0 0 0 .027-.027.027a3.843 3.843 0 01-2.814 2.325l-4.789.946A3.825 3.825 0 000 33.459v8.081a3.825 3.825 0 003.084 3.757l4.79.946a3.843 3.843 0 012.813 2.325s0 .027.027.027c.487 1.189.38 2.567-.324 3.648l-2.706 4.054c-1.028 1.514-.812 3.54.487 4.838l5.709 5.703a3.855 3.855 0 004.843.486l4.058-2.702c1.083-.73 2.435-.838 3.653-.325 0 0 .027 0 .027.027 1.19.487 2.083 1.54 2.327 2.811l.947 4.784A3.827 3.827 0 0033.495 75h8.09c1.84 0 3.41-1.297 3.761-3.081l.947-4.784c.244-1.27 1.137-2.324 2.327-2.81 0 0 .027 0 .027-.028 1.19-.486 2.57-.378 3.653.325l4.058 2.702c1.515 1.027 3.545.811 4.843-.486l5.71-5.703a3.845 3.845 0 00.486-4.838l-2.705-4.054c-.731-1.08-.84-2.432-.325-3.648 0 0 0-.027.027-.027a3.844 3.844 0 012.814-2.325l4.789-.946C73.728 44.946 75 43.378 75 41.541z" fill="url(#paint0_linear)"/><path d="M37.5 59C49.374 59 59 49.374 59 37.5S49.374 16 37.5 16 16 25.626 16 37.5 25.626 59 37.5 59z" fill="#fff"/><path fill-rule="evenodd" clip-rule="evenodd" d="M30.057 47.707c.317.186.687.293 1.057.293.344 0 .713-.107 1.057-.267l14.746-8.367A2.154 2.154 0 0048 37.5c0-.773-.423-1.492-1.083-1.865L32.17 27.267c-.66-.373-1.453-.347-2.114.027A2.119 2.119 0 0029 29.132v16.736c0 .746.396 1.466 1.057 1.839zm3.171-5.49v-9.46l8.324 4.743-8.324 4.717z" fill="url(#paint1_linear)"/><defs><linearGradient id="paint0_linear" x1=".036" y1="75" x2="75.009" y2="75" gradientUnits="userSpaceOnUse"><stop stop-color="#FFB300"/><stop offset="1" stop-color="#FF8E37"/></linearGradient><linearGradient id="paint1_linear" x1="28.991" y1="47.977" x2="47.967" y2="47.977" gradientUnits="userSpaceOnUse"><stop stop-color="#5C8BFC"/><stop offset="1" stop-color="#84B0FF"/></linearGradient></defs></svg>
